X:51
T:Don't Let Your Deal Go Down
C:Tiny Moore
N:
L:1/8
Q:1/4=250
M:4/4
K:E
zA =d2 B2 d2 | "E7"E4 e4 | g2 bg zb ef | "A7"=gb gf ef e=d | c=d cB A=G FE | "D7"=D[=d2F2][dF] z3d | 
e2 =de2f ef | "G"=ga bg ag ea | =g2 A=d BA =GF | "E7"E4 e4 | g2 bg zb ef | "A7"=gb gf ef e=d | 
c=d cB A=G FE | "D7"=D[=d2F2][dF] z3d | e2 =de2f ef | "G"=ga bg ag ea | =g2 ^ab zb b2 | 
"E7"b4 b4 | z2 e'e'2b e'2 | "A7"b4 b4 | zb2a b=d' ba | "D7"e4 [e4e4] | zB2A B=d BA | 
"G"[=G4B,4] [G4B,4] | z2 bb2b b2 | "E7"b4 b4 | z2 e'e'2b e'2 | "A7"b4 b4 | z3b a=d' ba | 
"D7"e4 [e4e4] | zB2A B=d BA | "G"[=G4B,4] [G4B,4] | z=D EF =GA B=d | "E7"ef ge =de fd | 
Bc =df bg fe | "A7"=ge gg ef ga | b=g ef =dc eb | (3"D7"ag=g fe =d2 Bd | =c=d ef b^a =af | 
"G"=g2 {c}=dg d=c B=D | =G2 B=c =dB ^dB | "E7"e2 B2 G2 BG | Bc =dB eg f/=g/f/e/ | 
"A7"c2 c2 c=d ef | =ge bg e=d cA | "D7"B/=c/B A=G FG AB | =c=D =d^A =A=G ED | 
"G"=GG ^AG =cG ^c=d | {^A}B=G EG z4 | "E7"E2 B,A, G,B, =DE | FG Bc =dB AG | "A7"=G2 (3FGF EF GA | 
B=G B2 c2 AG | "D7"F=G AB =cB AG | FE =D=C A,C EA | "G"=G2 (3FGA GE =D=C | B,^A, =A,G, =G,2 (3B=d=g | 
"E7"bg zb fe =dB | =de fg fe dB | "A7"cA (3cA=g ag e=c | cf ec AG =GA | "D7"FA, =CE AF2e | 
=d=c A=G F=D =CA, | "G"=G,2 (3^A,B,=D E=C FD | [=G2B,2] A=d BA GF | "E7"EF GA BG Bc | 
=dB ba gf ed | "A7"c2 =dB cB =GE | B=G E=C ^CE3 | "D7"z2 A,B, =CE A=G | FA =ce =d^A =A=G | 
"G"E=D FD =G2 =FE | =D=C B,A, =G,B, DB, | "E7"A,G, z2 B,=D (3GB=d | ed =d2 gf ed | 
"A7"B2 =d2 cB =GE | B=G E=C ^C2 E2 | "D7"=DE F=G AB =c^c | =d^A =A=G E=C FG | 
"G"z2 =FE =D=C B,A, | =G,2 =GA B=d e=f | f=d BA GB de | f=d c'=c' bd fa | g2 a2 ga2b | 
zc'2b ae ga | "D7"fe =dB =cB A=G | FA =ce =d^A =A=G | "G"E=D =GD F2 =FE | =D=C B,A, =G,B, DF | 
"E7"GE FG =DE FB, | C=D B,A, G,B, DE | "A7"(3=GBe c4 BA | =GE BG EC2E | "D7"=C2 A,C EA =GE | 
FA =ce =d^A =A2 | "G"=G2 =FE =D=C B,A, | 
K:G
G,2 [b2d2] [g4B4] | 


